**kern	**dynam
*I"Voice	*
*clefG2	*
*k[b-e-]	*
*M6/8	*
8dd	f
=1	=1
4ee-	.
8ee-	.
[4a [4cc [4ee- [4gg [4eee-	.
8a] 8cc] 8ee-] 8gg] 8eee-]	.
=2	=2
8aL	.
8B- 8d 8f#X 8a 8b- 8dd 8ff#X	.
8B-J 8d 8f#X 8b- 8dd 8ff# 8aa	.
8B- 8d 8f#X 8b- 8dd 8ff#X 8ddd	.
8r	.
8a	.
=3	=3
4dd	.
8dd	.
[4e- [4g [4dd [4ee- [4gg [4ddd	.
8e-] 8g] 8dd] 8ee-] 8gg] 8ddd]	.
=4	=4
8gL	.
8A-X 8e- 8a-X 8cc 8ee-	.
8A-XJ 8e- 8a-X 8cc 8ee- 8gg	.
8A-XL 8e- 8a-X 8cc 8ee- 8gg 8ccc	.
*MM110	*
8g	mf
8gJ	.
=5	=5
4cc	.
8cc	.
[4d [4f [4a-X [4cc [4ff [4ccc	.
8d] 8f] 8a-] 8cc] 8ff] 8ccc]	.
=6	=6
8fL	.
8G 8d 8f 8g 8b- 8dd	.
8GJ 8d 8g 8b- 8dd 8ff	.
8G 8d 8g 8b- 8dd 8ff 8bb-	.
*MM100	*
8r	.
8f	mp
=7	=7
4b-	.
8b-	.
*MM85	*
[4EE- [4E- [4A [4c#X [4g 4a	.
8EE-] 8E-] 8A] 8c#] 8g]	.
=8	=8
[8dL	.
8DD 8D 8d_	.
8DDJ 8D 8d]	.
8DD 8D 8d	.
4r	.
=9	=9
8a^L 8cc [8ee- [8gg [8eee-	.
8a 8cc 8ee-] 8gg] 8eee-]	.
8B-J 8f#X 8dd 8ff#X 8aa	.
8e-^L 8b- [8dd [8gg [8ddd	.
8e- 8b- 8dd] 8gg] 8ddd]	.
8A-XJ 8e- 8cc 8ee- 8gg	.
=10	=10
8dL 8f#X 8cc 8ff#X 8ccc	.
8b- 8bb-	.
8DJ 8F#X 8c 8a 8aa	.
8G 8B- 8g 8b- 8gg	.
8r	.
8dd	p
=11	=11
[8EE-L [8E- 8G [8cc	.
8EE-_ 8E-_ 8c 8cc]	.
8EE-J] 8E-] 8g 8b-	.
[8EE-L [8E- 8G [8a	.
8EE-_ 8E-_ 8c 8a]	.
8EE-J] 8E-] 8g	.
=12	=12
[8DDL [8D 8A [8f#X	.
8DD_ 8D_ 8d 8f#_	.
8DDJ] 8D] 8f#_	.
[8DDL [8D 8A 8f#]	.
8DD_ 8D_ 8d 8g	.
8DDJ] 8D] 8f#X 8a	.
=13	=13
[8DDL [8D 8B- [8b-	.
8DD_ 8D_ 8d 8b-]	.
8DDJ] 8D] 8fn 8b-	.
[8FFL [8F 8c 8cc	.
8FF_ 8F_ 8e- 8dd	.
8FFJ] 8F] 8a 8ee-	.
=14	=14
[8FF#XL [8F#X 8c [8dd	.
8FF#_ 8F#_ 8d 8dd_	.
8FF#J] 8F#] 8a 8dd]	.
[8GGL [8G 8B-	.
8GG_ 8G_ 8d	.
8GGJ] 8G] 8b- 8dd	.
=15	=15
8AA-XL 8A-X [8B- [8d [8b- [8dd	.
8GG 8G 8B-_ 8d_ 8b-_ 8dd]	.
8AA-XJ 8A-X 8B-] 8d] 8b-] 8dd	.
8AAnL 8An [8c#X [8g [8cc#X [8een	.
8GG#X 8G#X 8c#_ 8g_ 8cc#_ 8ee]	.
8AAJ 8A 8c#] 8g] 8cc#] 8ee	.
=16	=16
8BB-L 8B- [8d [8f [8dd [8ff	.
8AA 8A 8d_ 8f_ 8dd_ 8ff_	.
8BB-J 8B- 8d] 8f] 8dd] 8ff_	.
8BBnL 8Bn [8f [8g#X [8dd 8ff_	.
8AA#X 8A#X 8f_ 8g#_ 8dd_ 8een 8ff_	.
8BBnJ 8Bn 8f] 8g#] 8dd] 8ff]	.
=17	=17
8CL 8c [8a [8cc [8ff [8aa	.
8BBn 8Bn 8a_ 8cc_ 8ff_ 8aa_	.
8BB-XJ 8B-X 8a] 8cc] 8ff] 8aa]	.
8AAL 8A [8cc [8een [8bb-X [8ccc	.
8AA-X 8A-X 8cc_ 8dd 8ee_ 8bb-_ 8ccc_	.
8GGJ 8G 8cc] 8ee] 8bb-] 8ccc]	.
=18	=18
8FFL 8F [8ff [8aa [8ccc [8fff	.
8C 8ff_ 8aa_ 8ccc_ 8fff_	.
8FFJ 8F 8ff_ 8aa_ 8ccc_ 8fff_	.
8FF 8F 8ff] 8aa] 8ccc] 8fff]	.
8r	.
8f	.
=19	=19
8GG-XL 8D-X 8B- [8g-X 8b-	.
16g-L_	.
16B-J 16g-] 16b-	.
8GG-XJ 8D-X 8B- 8g-X 8b-	.
8GG-XL 8D-X 8B- 8g-X 8b- 8dd-X	.
8gg-X	.
8ffJ	.
=20	=20
8CCL 8GGn 8c 8gn 8b- 8cc [8een	.
16eeL_	.
16cJ 16g 16b- 16cc 16ee_	.
8CCJ 8GG 8c 8g 8b- 8cc 8ee]	.
8CCL 8GG 8c 8g 8b- 8cc [8ee	.
16eeL_	.
16CCJ 16GG 16ee]	.
8CCJ 8GG 8g	.
=21	=21
8GG-XL 8D-X 8B- [8g-X 8b-	.
16g-L_	.
16B-J 16g-] 16b-	.
8GG-XJ 8D-X 8B- 8g-X 8b-	.
8GG-XL 8D-X 8B- 8g-X 8b- 8dd-X	.
8gg-X	.
8ffJ	.
=22	=22
8CCL 8GGn 8c 8gn 8b- 8cc [8een	.
16eeL_	.
16cJ 16g 16b- 16cc 16ee_	.
8CCJ 8GG 8c 8g 8b- 8cc 8ee_	.
8CC 8GG 8c 8g 8b- 8cc 8ee]	.
16r	.
16CCKL 16GG	.
8CCJ 8GG 8cc	.
=23	=23
8CL 8A-X 8e- 8g-X 8a-X [8ee-	.
16ee-L_	.
16e-J 16g-X 16a-X 16ee-]	.
8CJ 8A-X 8e- 8g-X 8a-X 8ee-	.
8CL 8A-X 8e- 8g-X 8a-X 8ee-	.
8dd	.
8ee-J	.
=24	=24
8C-XL 8E- 8c-X 8g-X 8an [8ee- 8gg-X	.
16ee-L_	.
16g-XJ 16a 16ee-_ 16gg-X	.
8C-XJ 8E- 8c-X 8g-X 8a 8ee-_ 8gg-	.
8C-XL 8E- 8c-X 8g-X 8a 8ee-] 8gg-X	.
8dd	.
8ee-J	.
=25	=25
8BB-L 8E- 8B- 8gn 8b- [8ee- 8ggn	.
8ee-]	.
8ggJ	.
8BB-L 8F 8B- 8a-X 8dd [8ff 8bb-	.
8ff]	.
8ddJ	.
=26	=26
8EE-L 8BB- 8E- 8b- [8ee- 8gg 8bb-	.
16ee-L_	.
16ee-J_ 16gg 16bb- 16eee-	.
8EE-J 8BB- 8E- 8ee-] 8gg 8bb- 8eee-	.
8EE- 8BB- 8E- 8ee- 8gg 8bb- 8eee-	.
8r	.
8dd	p
=27	=27
[4E- [4G [4e- [4g 4cc#X	.
8E-_ 8G_ 8e-_ 8g_ 8ccn	.
8E-L_ 8G_ 8e-_ 8g_ 8b-	.
8E-_ 8G_ 8e-_ 8g_ 8a	.
8E-J] 8G] 8e-] 8g]	.
=28	=28
[4D [4F#X [4d [4f#X	.
8D_ 8F#_ 8d_ 8f#_ [8a	.
4D_ 4F#_ 4d_ 4f#_ 4a]	.
8D] 8F#] 8d] 8f#] 8dd	.
=29	=29
[4E- [4G [4e- [4g [4dd [4gg	.
8E-_ 8G_ 8e-_ 8g_ 8cc 8dd_ 8gg_	.
4E-_ 4G_ 4e-_ 4g_ 4b- 4dd_ 4gg_	.
8E-] 8G] 8e-] 8g] 8dd] 8gg]	.
=30	=30
[4.D [4.F#X [4.d [4.a [4.dd [4.ff#X [4.aa	.
4D_ 4F#_ 4d_ 4a_ 4dd_ 4ff#_ 4aa_	.
8D] 8F#] 8d] 8a] 8dd] 8ff#] 8aa]	f
=31	=31
8EnL 8Bn 8en [8g	.
8g]	.
8gJ	.
8DL 8F#X 8Bn 8d 8f#X [8bn	.
8b]	.
8bJ	.
=32	=32
8BBnL 8G 8Bn 8d#X 8g [8dd#X	.
8dd#]	.
8dd#J	.
4.C 4.G 4.c 4.g 4.cc [4.een 4.gg	.
=33	=33
8DL 8G 8d 8bn 8dd 8een] 8gg 8bbn	.
8ddn	.
8ccJ	.
[8bnL	.
8DD 8D 8c 8d 8f#X 8b]	.
8aJ	.
=34	=34
[4g	.
8GG 8D 8Bn 8g] 8bn 8dd 8gg	.
4.r	.
==	==
*-	*-
